tenants/vtwonen/icons/search.svg

<svg fill="none" height="24" viewBox="0 0 24 24" width="24" xmlns="http://www.w3.org/2000/svg"><path d="m21.8623 20.8116-5.0388-5.0388c-.0898-.0899-.207-.1367-.332-.1367h-.4023c1.3397-1.4492 2.16-3.3827 2.16-5.5115 0-4.48806-3.6365-8.1246-8.1246-8.1246-4.48806 0-8.1246 3.63654-8.1246 8.1246 0 4.4881 3.63654 8.1246 8.1246 8.1246 2.1288 0 4.0623-.8203 5.5115-2.1561v.3984c0 .125.0507.2422.1367.332l5.0388 5.0388c.1836.1836.4804.1836.664 0l.3867-.3867c.1836-.1836.1836-.4804 0-.664zm-11.7377-3.8123c-3.80059 0-6.87466-3.0741-6.87466-6.8747 0-3.80059 3.07407-6.87466 6.87466-6.87466 3.8006 0 6.8747 3.07407 6.8747 6.87466 0 3.8006-3.0741 6.8747-6.8747 6.8747z" fill="#000" stroke="#000" stroke-width=".1"/></svg>

<svg width="24" height="24" viewBox="0 0 24 24" fill="none" xmlns="http://www.w3.org/2000/svg">
<path d="M21.8623 20.8116L16.8235 15.7728C16.7337 15.6829 16.6165 15.6361 16.4915 15.6361H16.0892C17.4289 14.1869 18.2492 12.2534 18.2492 10.1246C18.2492 5.63654 14.6127 2 10.1246 2C5.63654 2 2 5.63654 2 10.1246C2 14.6127 5.63654 18.2492 10.1246 18.2492C12.2534 18.2492 14.1869 17.4289 15.6361 16.0931V16.4915C15.6361 16.6165 15.6868 16.7337 15.7728 16.8235L20.8116 21.8623C20.9952 22.0459 21.292 22.0459 21.4756 21.8623L21.8623 21.4756C22.0459 21.292 22.0459 20.9952 21.8623 20.8116ZM10.1246 16.9993C6.32401 16.9993 3.24994 13.9252 3.24994 10.1246C3.24994 6.32401 6.32401 3.24994 10.1246 3.24994C13.9252 3.24994 16.9993 6.32401 16.9993 10.1246C16.9993 13.9252 13.9252 16.9993 10.1246 16.9993Z" fill="black" stroke="black" stroke-width="0.1"/>
</svg>
